actions/symbolic/edit-cut-symbolic.svg

<svg viewBox="0 0 16 16" xmlns="http://www.w3.org/2000/svg"><path d="m5.3424479 1.999999-.2903645.516927c-.1799487.3208445-.335913.4725261-.4192708.7578126-.04168.1426431-.04084.3132818.0013.4674478.042145.1541663.1150857.3018655.2174481.4843751l2.2630247 4.0416671-1.1432292 2.0156244c-.2989098-.184974-.5941179-.394532-.9700541-.394532-1.1055243 0-2.0013021.925983-2.0013021 2.055991 0 1.130005.8957775 2.054687 2.0013021 2.054687s2.0013021-.924682 2.0013021-2.054687c0-.0893-.013988-.172909-.024739-.257813.3081655-.669047.5990274-1.192418 1.2057294-1.498697.00202-.0022.00196-.003.0039-.0052l.8359375 1.492188c-.01148.08936-.02604.1772-.02604.269531.0000001 1.129996.8957772 2.054679 2.0013019 2.054679 1.105525 0 2.001303-.924683 2.001303-2.054687 0-1.130008-.895778-2.055991-2.001303-2.055991-.374506 0-.669607.205695-.967447.389323l-1.1393198-2.0104164 2.2656248-4.0416671v-.0013c.101956-.1818796.174105-.3292931.216146-.483073.04214-.1541661.04423-.3248047.0027-.4674478-.08346-.285257-.239359-.4369663-.419307-.7578108l-.290425-.5169309-2.66276 4.6992184zm-.3411458 9.25651c.3709385 0 .6640625.298935.6640625.688803s-.293124.6875-.6640625.6875c-.3709386 0-.6627604-.297632-.6627604-.6875 0-.389869.2918218-.688803.6627604-.688803zm5.9973959 0c .370938 0 .662761.298935.662761.688803s-.291823.6875-.662761.6875c-.37094 0-.664063-.297632-.664063-.6875 0-.389869.293123-.688803.664063-.688803z" fill="#bebebe"/></svg>

<?xml version="1.0" encoding="UTF-8" standalone="no"?>
<svg
   xmlns:dc="http://purl.org/dc/elements/1.1/"
   xmlns:cc="http://creativecommons.org/ns#"
   xmlns:rdf="http://www.w3.org/1999/02/22-rdf-syntax-ns#"
   xmlns:svg="http://www.w3.org/2000/svg"
   xmlns="http://www.w3.org/2000/svg"
   xmlns:sodipodi="http://sodipodi.sourceforge.net/DTD/sodipodi-0.dtd"
   xmlns:inkscape="http://www.inkscape.org/namespaces/inkscape"
   viewBox="0 0 16 16"
   id="svg3197"
   version="1.1"
   inkscape:version="0.91 r13725"
   sodipodi:docname="edit-cut-symbolic.svg">
  <metadata
     id="metadata3205">
    <rdf:RDF>
      <cc:Work
         rdf:about="">
        <dc:format>image/svg+xml</dc:format>
        <dc:type
           rdf:resource="http://purl.org/dc/dcmitype/StillImage" />
      </cc:Work>
    </rdf:RDF>
  </metadata>
  <sodipodi:namedview
     pagecolor="#ffffff"
     bordercolor="#666666"
     borderopacity="1"
     objecttolerance="10"
     gridtolerance="10"
     guidetolerance="10"
     inkscape:pageopacity="0"
     inkscape:pageshadow="2"
     inkscape:window-width="640"
     inkscape:window-height="480"
     id="namedview3203"
     showgrid="false"
     inkscape:zoom="39.8125"
     inkscape:cx="5.0863422"
     inkscape:cy="8"
     inkscape:current-layer="svg3197" />
  <defs
     id="defs3051">
    <style
       type="text/css"
       id="current-color-scheme">
      .ColorScheme-Text {
        color:#bebebe;
      }
      </style>
  </defs>
  <path
     style="color:#bebebe;fill:currentColor;fill-opacity:1;stroke:none"
     class="ColorScheme-Text"
     d="M 5.3424479,1.999999 5.0520834,2.516926 c -0.1799487,0.3208445 -0.335913,0.4725261 -0.4192708,0.7578126 -0.04168,0.1426431 -0.04084,0.3132818 0.0013,0.4674478 0.042145,0.1541663 0.1150857,0.3018655 0.2174481,0.4843751 L 7.1145854,8.2682286 5.9713562,10.283853 C 5.6724464,10.098879 5.3772383,9.889321 5.0013021,9.889321 3.8957778,9.889321 3,10.815304 3,11.945312 c 0,1.130005 0.8957775,2.054687 2.0013021,2.054687 1.1055246,0 2.0013021,-0.924682 2.0013021,-2.054687 0,-0.0893 -0.013988,-0.172909 -0.024739,-0.257813 0.3081655,-0.669047 0.5990274,-1.192418 1.2057294,-1.498697 0.00202,-0.0022 0.00196,-0.003 0.0039,-0.0052 l 0.8359375,1.492188 c -0.01148,0.08936 -0.02604,0.1772 -0.02604,0.269531 C 8.9973922,13.075317 9.8931693,14 10.998694,14 c 1.105525,0 2.001303,-0.924683 2.001303,-2.054687 0,-1.130008 -0.895778,-2.055991 -2.001303,-2.055991 -0.374506,0 -0.669607,0.205695 -0.967447,0.389323 L 8.8919272,8.2682286 11.157552,4.2265615 l 0,-0.0013 c 0.101956,-0.1818796 0.174105,-0.3292931 0.216146,-0.483073 0.04214,-0.1541661 0.04423,-0.3248047 0.0027,-0.4674478 -0.08346,-0.285257 -0.239359,-0.4369663 -0.419307,-0.7578108 L 10.666666,1.999999 8.003906,6.6992174 5.3424479,1.999999 Z m -0.3411458,9.25651 c 0.3709385,0 0.6640625,0.298935 0.6640625,0.688803 0,0.389868 -0.293124,0.6875 -0.6640625,0.6875 -0.3709386,0 -0.6627604,-0.297632 -0.6627604,-0.6875 0,-0.389869 0.2918218,-0.688803 0.6627604,-0.688803 z m 5.9973959,0 c 0.370938,0 0.662761,0.298935 0.662761,0.688803 0,0.389868 -0.291823,0.6875 -0.662761,0.6875 -0.37094,0 -0.664063,-0.297632 -0.664063,-0.6875 0,-0.389869 0.293123,-0.688803 0.664063,-0.688803 z"
     id="path3201"
     inkscape:connector-curvature="0" />
</svg>
